X: 688
T: Ag Argoint I Scoil Eigse
R: jig
M: 6/8
K: Gmajor
|:DGB dCA|GEF DEF|DGB dCA|AGF G2E|
DGB dCA|G3 A3|fed CAd|GAF G3:|
|:GBd g3|gef def|CBA a3|bag e3|
dBd g3|gef g3|fed Cad|GFG G3:|

